austria/municipalities/70347.svg

<?xml version="1.0" encoding="UTF-8"?>
<!DOCTYPE svg PUBLIC "-//W3C//DTD SVG 1.1//EN" "http://www.w3.org/Graphics/SVG/1.1/DTD/svg11.dtd">
<svg xmlns="http://www.w3.org/2000/svg" version="1.1" width="166px" height="192px" style="shape-rendering:geometricPrecision; text-rendering:geometricPrecision; image-rendering:optimizeQuality; fill-rule:evenodd; clip-rule:evenodd" xmlns:xlink="http://www.w3.org/1999/xlink">
<g><path style="opacity:1" fill="#070809" d="M -0.5,-0.5 C 54.8333,-0.5 110.167,-0.5 165.5,-0.5C 165.5,39.1667 165.5,78.8333 165.5,118.5C 157.509,159.158 133.176,183.491 92.5,191.5C 85.5,191.5 78.5,191.5 71.5,191.5C 30.4715,182.805 6.47145,157.805 -0.5,116.5C -0.5,77.5 -0.5,38.5 -0.5,-0.5 Z"/></g>
<g><path style="opacity:1" fill="#253165" d="M 130.5,4.5 C 121.972,28.2473 113.139,51.9139 104,75.5C 93.4211,100.583 74.5878,114.25 47.5,116.5C 32.8333,116.5 18.1667,116.5 3.5,116.5C 3.5,78.8333 3.5,41.1667 3.5,3.5C 46.0033,3.168 88.3366,3.50134 130.5,4.5 Z"/></g>
<g><path style="opacity:1" fill="#273164" d="M 159.5,124.5 C 149.741,85.7898 140.741,46.7898 132.5,7.5C 132.5,6.16667 132.5,4.83333 132.5,3.5C 142.167,3.5 151.833,3.5 161.5,3.5C 161.667,41.8348 161.5,80.1681 161,118.5C 160.809,120.708 160.309,122.708 159.5,124.5 Z"/></g>
<g><path style="opacity:1" fill="#fefefe" d="M 130.5,4.5 C 131.167,5.5 131.833,6.5 132.5,7.5C 140.741,46.7898 149.741,85.7898 159.5,124.5C 152.218,157.283 132.218,177.783 99.5,186C 54.7031,192.026 23.8698,174.192 7,132.5C 5.71395,127.904 4.88061,123.237 4.5,118.5C 18.8333,117.833 33.1667,117.167 47.5,116.5C 74.5878,114.25 93.4211,100.583 104,75.5C 113.139,51.9139 121.972,28.2473 130.5,4.5 Z"/></g>
<g><path style="opacity:1" fill="#e0a01d" d="M 55.5,47.5 C 54.8333,48.5 54.1667,49.5 53.5,50.5C 53.6646,47.4816 53.498,44.4816 53,41.5C 51.5845,47.7145 51.0845,54.0478 51.5,60.5C 52.5,60.5 53.5,60.5 54.5,60.5C 54.5,59.1667 54.5,57.8333 54.5,56.5C 54.3398,54.8008 54.5065,53.1341 55,51.5C 56.1068,52.7119 56.6068,52.3786 56.5,50.5C 56.8463,44.4176 59.513,43.0843 64.5,46.5C 64.5701,50.4248 63.9034,54.0915 62.5,57.5C 62.2089,56.3509 61.3756,55.6842 60,55.5C 56.6327,56.009 55.7993,57.6756 57.5,60.5C 57.5,61.5 57.5,62.5 57.5,63.5C 55.3123,64.5357 55.3123,66.0357 57.5,68C 64.4851,69.5186 68.1518,66.6853 68.5,59.5C 69.2006,56.6652 69.3673,53.6652 69,50.5C 70.0113,49.6634 71.1779,49.33 72.5,49.5C 72.5,49.8333 72.5,50.1667 72.5,50.5C 72.1703,53.157 71.837,55.8236 71.5,58.5C 71.361,60.8825 72.0277,62.8825 73.5,64.5C 73.5106,66.0174 74.1772,67.1841 75.5,68C 78.0385,68.7958 80.3718,68.6291 82.5,67.5C 82.49,64.3116 82.6566,60.9783 83,57.5C 80.9551,55.9568 79.4551,56.2901 78.5,58.5C 77.2101,57.9423 76.3768,56.9423 76,55.5C 75.2446,51.7446 75.4113,48.0779 76.5,44.5C 77.9187,43.5489 79.5853,43.2155 81.5,43.5C 82.2283,45.5115 83.0617,47.5115 84,49.5C 83.8539,44.1759 83.8539,38.8426 84,33.5C 85.7889,31.771 87.9556,31.1043 90.5,31.5C 88.3736,38.0074 86.8736,44.6741 86,51.5C 85.1925,55.0267 85.3592,58.3601 86.5,61.5C 86.5,62.5 86.5,63.5 86.5,64.5C 85.8826,64.6107 85.3826,64.944 85,65.5C 85.6944,71.3033 83.1944,73.97 77.5,73.5C 75.9382,73.2671 74.6049,72.6005 73.5,71.5C 72.8972,68.6924 71.8972,66.0258 70.5,63.5C 69.6143,64.325 69.281,65.325 69.5,66.5C 68.0337,67.347 67.2004,68.6803 67,70.5C 65.871,72.1412 64.371,73.1412 62.5,73.5C 61.5,73.5 60.5,73.5 59.5,73.5C 55.2396,71.6477 53.5729,68.3143 54.5,63.5C 53.5,63.5 52.5,63.5 51.5,63.5C 51.2444,66.5979 50.5778,69.5979 49.5,72.5C 48.609,73.1098 47.609,73.4431 46.5,73.5C 44.3792,73.6747 42.3792,73.3414 40.5,72.5C 39.7281,71.3065 38.7281,70.3065 37.5,69.5C 36.1091,61.5607 34.7757,61.5607 33.5,69.5C 32.1466,71.1827 30.4799,72.5161 28.5,73.5C 26.0248,74.6868 23.6914,74.3535 21.5,72.5C 21.6716,71.5084 21.3382,70.8417 20.5,70.5C 21.4324,57.0913 19.4324,44.0913 14.5,31.5C 16.5,31.5 18.5,31.5 20.5,31.5C 21.8509,33.423 22.5176,35.5897 22.5,38C 21.6262,41.8153 21.4596,45.6487 22,49.5C 22.246,44.5607 24.5794,42.894 29,44.5C 30.7643,48.748 30.931,53.0813 29.5,57.5C 28.8826,57.6107 28.3826,57.944 28,58.5C 25.4679,55.628 23.6345,55.9613 22.5,59.5C 23.0545,62.1022 23.2212,64.7689 23,67.5C 28.6979,69.5032 32.3646,67.5032 34,61.5C 34.7891,59.2884 34.6225,57.2884 33.5,55.5C 32.962,53.8828 32.6287,52.2161 32.5,50.5C 34.4158,48.8843 35.9158,49.2177 37,51.5C 36.6799,54.4601 36.6799,57.4601 37,60.5C 37.3736,62.4913 38.207,64.158 39.5,65.5C 41.4065,68.3324 44.0732,69.1657 47.5,68C 50.1667,66 50.1667,64 47.5,62C 49.4661,60.6534 49.7994,59.1534 48.5,57.5C 48.2089,56.3509 47.3756,55.6842 46,55.5C 44.4672,55.7728 42.9672,56.1062 41.5,56.5C 41.335,53.1501 41.5017,49.8168 42,46.5C 43.7328,44.3985 45.7328,44.0652 48,45.5C 49.0438,47.7148 49.7105,50.0481 50,52.5C 50.6667,50.1667 50.6667,47.8333 50,45.5C 47.1717,42.2043 46.3384,38.5376 47.5,34.5C 49.0269,34.573 50.0269,33.9063 50.5,32.5C 51.4584,32.0472 52.2917,31.3805 53,30.5C 54.1934,32.6051 55.8601,34.2718 58,35.5C 58.6667,37.5 58.6667,39.5 58,41.5C 56.4412,43.2166 55.6079,45.2166 55.5,47.5 Z"/></g>
<g><path style="opacity:1" fill="#1d1a16" d="M 86.5,61.5 C 85.3592,58.3601 85.1925,55.0267 86,51.5C 86.8736,44.6741 88.3736,38.0074 90.5,31.5C 87.9556,31.1043 85.7889,31.771 84,33.5C 83.8539,38.8426 83.8539,44.1759 84,49.5C 83.0617,47.5115 82.2283,45.5115 81.5,43.5C 81.3331,39.9041 81.8331,36.2374 83,32.5C 85.4815,30.6863 88.3148,30.0196 91.5,30.5C 88.7159,40.6406 87.0493,50.9739 86.5,61.5 Z"/></g>
<g><path style="opacity:1" fill="#1b1814" d="M 64.5,46.5 C 59.513,43.0843 56.8463,44.4176 56.5,50.5C 55.596,49.791 55.2627,48.791 55.5,47.5C 55.6079,45.2166 56.4412,43.2166 58,41.5C 58.6667,39.5 58.6667,37.5 58,35.5C 55.8601,34.2718 54.1934,32.6051 53,30.5C 52.2917,31.3805 51.4584,32.0472 50.5,32.5C 51.6138,26.7947 53.1138,26.4614 55,31.5C 59.4979,34.1978 60.6645,38.0311 58.5,43C 60.1667,43.3333 61.8333,43.6667 63.5,44C 64.2524,44.6708 64.5858,45.5041 64.5,46.5 Z"/></g>
<g><path style="opacity:1" fill="#151310" d="M 47.5,34.5 C 46.3384,38.5376 47.1717,42.2043 50,45.5C 50.6667,47.8333 50.6667,50.1667 50,52.5C 49.7105,50.0481 49.0438,47.7148 48,45.5C 45.7328,44.0652 43.7328,44.3985 42,46.5C 41.5017,49.8168 41.335,53.1501 41.5,56.5C 40.3567,53.0242 40.1901,49.3575 41,45.5C 42.4443,43.8446 44.2776,43.178 46.5,43.5C 46.2767,41.6583 45.9434,39.825 45.5,38C 45.3866,36.3009 46.0532,35.1342 47.5,34.5 Z"/></g>
<g><path style="opacity:1" fill="#836022" d="M 55.5,47.5 C 55.2627,48.791 55.596,49.791 56.5,50.5C 56.6068,52.3786 56.1068,52.7119 55,51.5C 54.5065,53.1341 54.3398,54.8008 54.5,56.5C 53.5386,54.7354 53.2053,52.7354 53.5,50.5C 54.1667,49.5 54.8333,48.5 55.5,47.5 Z"/></g>
<g><path style="opacity:1" fill="#1d1916" d="M 14.5,31.5 C 19.4324,44.0913 21.4324,57.0913 20.5,70.5C 19.8115,67.9799 18.8115,65.4799 17.5,63C 18.7185,61.5618 19.3852,59.8951 19.5,58C 18.3874,49.4331 16.3874,41.0998 13.5,33C 13.5699,32.2352 13.9033,31.7352 14.5,31.5 Z"/></g>
<g><path style="opacity:1" fill="#121111" d="M 20.5,31.5 C 21.7498,31.5774 22.5831,32.244 23,33.5C 23.498,36.4816 23.6646,39.4816 23.5,42.5C 25.5273,42.3379 27.5273,42.5045 29.5,43C 30.8115,45.4799 31.8115,47.9799 32.5,50.5C 32.6287,52.2161 32.962,53.8828 33.5,55.5C 32.8826,55.3893 32.3826,55.056 32,54.5C 31.1482,55.5707 30.3149,56.5707 29.5,57.5C 30.931,53.0813 30.7643,48.748 29,44.5C 24.5794,42.894 22.246,44.5607 22,49.5C 21.4596,45.6487 21.6262,41.8153 22.5,38C 22.5176,35.5897 21.8509,33.423 20.5,31.5 Z"/></g>
<g><path style="opacity:1" fill="#131110" d="M 72.5,49.5 C 71.1779,49.33 70.0113,49.6634 69,50.5C 69.3673,53.6652 69.2006,56.6652 68.5,59.5C 67.7791,56.1825 67.6124,52.8492 68,49.5C 69.6155,48.1991 71.1155,48.1991 72.5,49.5 Z"/></g>
<g><path style="opacity:1" fill="#1d1811" d="M 76.5,44.5 C 75.4113,48.0779 75.2446,51.7446 76,55.5C 76.3768,56.9423 77.2101,57.9423 78.5,58.5C 78.631,59.2389 78.4643,59.9056 78,60.5C 75.0996,57.8246 73.933,54.4913 74.5,50.5C 74.5391,48.0478 75.2057,46.0478 76.5,44.5 Z"/></g>
<g><path style="opacity:1" fill="#1f1a18" d="M 53.5,50.5 C 53.2053,52.7354 53.5386,54.7354 54.5,56.5C 54.5,57.8333 54.5,59.1667 54.5,60.5C 53.5,60.5 52.5,60.5 51.5,60.5C 51.0845,54.0478 51.5845,47.7145 53,41.5C 53.498,44.4816 53.6646,47.4816 53.5,50.5 Z"/></g>
<g><path style="opacity:1" fill="#222647" d="M 33.5,55.5 C 34.6225,57.2884 34.7891,59.2884 34,61.5C 32.3646,67.5032 28.6979,69.5032 23,67.5C 23.2212,64.7689 23.0545,62.1022 22.5,59.5C 23.6345,55.9613 25.4679,55.628 28,58.5C 28.3826,57.944 28.8826,57.6107 29.5,57.5C 30.3149,56.5707 31.1482,55.5707 32,54.5C 32.3826,55.056 32.8826,55.3893 33.5,55.5 Z"/></g>
<g><path style="opacity:1" fill="#191510" d="M 64.5,46.5 C 65.905,50.937 65.405,55.2703 63,59.5C 62.5357,58.9056 62.369,58.2389 62.5,57.5C 63.9034,54.0915 64.5701,50.4248 64.5,46.5 Z"/></g>
<g><path style="opacity:1" fill="#19150e" d="M 72.5,50.5 C 72.4549,55.0183 72.7883,59.6849 73.5,64.5C 72.0277,62.8825 71.361,60.8825 71.5,58.5C 71.837,55.8236 72.1703,53.157 72.5,50.5 Z"/></g>
<g><path style="opacity:1" fill="#101012" d="M 48.5,57.5 C 45.788,56.0126 43.6213,56.6793 42,59.5C 41.5172,58.552 41.3505,57.552 41.5,56.5C 42.9672,56.1062 44.4672,55.7728 46,55.5C 47.3756,55.6842 48.2089,56.3509 48.5,57.5 Z"/></g>
<g><path style="opacity:1" fill="#1d1913" d="M 82.5,67.5 C 81.2974,64.8265 81.2974,62.1599 82.5,59.5C 81.5629,57.3576 80.2296,57.0243 78.5,58.5C 79.4551,56.2901 80.9551,55.9568 83,57.5C 82.6566,60.9783 82.49,64.3116 82.5,67.5 Z"/></g>
<g><path style="opacity:1" fill="#101012" d="M 62.5,57.5 C 59.1919,55.7162 57.5253,56.7162 57.5,60.5C 55.7993,57.6756 56.6327,56.009 60,55.5C 61.3756,55.6842 62.2089,56.3509 62.5,57.5 Z"/></g>
<g><path style="opacity:1" fill="#0e1017" d="M 48.5,57.5 C 49.7994,59.1534 49.4661,60.6534 47.5,62C 50.1667,64 50.1667,66 47.5,68C 44.0732,69.1657 41.4065,68.3324 39.5,65.5C 42.6908,68.2207 45.6908,68.054 48.5,65C 47.4258,64.2613 46.7591,63.2613 46.5,62C 47.4138,60.5936 48.0805,59.0936 48.5,57.5 Z"/></g>
<g><path style="opacity:1" fill="#281f13" d="M 37.5,69.5 C 36.6851,68.5707 35.8518,67.5707 35,66.5C 34.7679,67.7375 34.2679,68.7375 33.5,69.5C 34.7757,61.5607 36.1091,61.5607 37.5,69.5 Z"/></g>
<g><path style="opacity:1" fill="#1a1714" d="M 68.5,59.5 C 68.1518,66.6853 64.4851,69.5186 57.5,68C 55.3123,66.0357 55.3123,64.5357 57.5,63.5C 57.7796,67.2253 59.7796,68.392 63.5,67C 65.8231,64.8301 67.4897,62.3301 68.5,59.5 Z"/></g>
<g><path style="opacity:1" fill="#0f1119" d="M 59.5,73.5 C 55.1667,74.8333 50.8333,74.8333 46.5,73.5C 47.609,73.4431 48.609,73.1098 49.5,72.5C 50.5778,69.5979 51.2444,66.5979 51.5,63.5C 52.5,63.5 53.5,63.5 54.5,63.5C 53.5729,68.3143 55.2396,71.6477 59.5,73.5 Z"/></g>
<g><path style="opacity:1" fill="#243165" d="M 49.5,72.5 C 51.5113,70.333 52.6779,67.6663 53,64.5C 53.1466,67.5706 53.9799,70.4039 55.5,73C 53.2884,73.7891 51.2884,73.6225 49.5,72.5 Z"/></g>
<g><path style="opacity:1" fill="#241e15" d="M 73.5,71.5 C 71.9263,70.0158 70.593,68.3492 69.5,66.5C 69.281,65.325 69.6143,64.325 70.5,63.5C 71.8972,66.0258 72.8972,68.6924 73.5,71.5 Z"/></g>
<g><path style="opacity:1" fill="#1b1713" d="M 73.5,64.5 C 75.8875,67.0762 78.8875,68.0762 82.5,67.5C 80.3718,68.6291 78.0385,68.7958 75.5,68C 74.1772,67.1841 73.5106,66.0174 73.5,64.5 Z"/></g>
<g><path style="opacity:1" fill="#1e2548" d="M 37.5,69.5 C 38.7281,70.3065 39.7281,71.3065 40.5,72.5C 38.9522,73.7943 36.9522,74.4609 34.5,74.5C 32.3035,74.4954 30.3035,74.162 28.5,73.5C 30.4799,72.5161 32.1466,71.1827 33.5,69.5C 34.2679,68.7375 34.7679,67.7375 35,66.5C 35.8518,67.5707 36.6851,68.5707 37.5,69.5 Z"/></g>
<g><path style="opacity:1" fill="#674c1e" d="M 86.5,64.5 C 86.7945,68.115 85.7945,71.2816 83.5,74C 84.0944,74.4643 84.7611,74.631 85.5,74.5C 75.0212,75.8322 64.1879,76.4988 53,76.5C 41.8121,76.4988 30.9788,75.8322 20.5,74.5C 21.3382,74.1583 21.6716,73.4916 21.5,72.5C 23.6914,74.3535 26.0248,74.6868 28.5,73.5C 30.3035,74.162 32.3035,74.4954 34.5,74.5C 36.9522,74.4609 38.9522,73.7943 40.5,72.5C 42.3792,73.3414 44.3792,73.6747 46.5,73.5C 50.8333,74.8333 55.1667,74.8333 59.5,73.5C 60.5,73.5 61.5,73.5 62.5,73.5C 67.5,74.8333 72.5,74.8333 77.5,73.5C 83.1944,73.97 85.6944,71.3033 85,65.5C 85.3826,64.944 85.8826,64.6107 86.5,64.5 Z"/></g>
<g><path style="opacity:1" fill="#191f39" d="M 69.5,66.5 C 70.593,68.3492 71.9263,70.0158 73.5,71.5C 74.6049,72.6005 75.9382,73.2671 77.5,73.5C 72.5,74.8333 67.5,74.8333 62.5,73.5C 64.371,73.1412 65.871,72.1412 67,70.5C 67.2004,68.6803 68.0337,67.347 69.5,66.5 Z"/></g>
<g><path style="opacity:1" fill="#181615" d="M 20.5,74.5 C 30.9788,75.8322 41.8121,76.4988 53,76.5C 64.1879,76.4988 75.0212,75.8322 85.5,74.5C 88.1667,78.1667 88.1667,81.8333 85.5,85.5C 63.6705,86.6629 41.6705,86.8295 19.5,86C 18.8689,84.0937 18.5356,82.0937 18.5,80C 18.5465,77.7047 19.2132,75.8714 20.5,74.5 Z"/></g>
<g><path style="opacity:1" fill="#8a6622" d="M 85.5,85.5 C 63.8231,85.833 42.1564,85.4997 20.5,84.5C 31.3333,84.1667 42.1667,83.8333 53,83.5C 64.1879,83.5012 75.0212,84.1678 85.5,85.5 Z"/></g>
<g><path style="opacity:1" fill="#e7a51c" d="M 19.5,77.5 C 41.5025,77.3334 63.5025,77.5 85.5,78C 86.7111,79.1131 86.7111,80.2798 85.5,81.5C 63.5101,82.4997 41.5101,82.833 19.5,82.5C 19.5,80.8333 19.5,79.1667 19.5,77.5 Z"/></g>
<g><path style="opacity:1" fill="#888481" d="M 3.5,116.5 C 18.1667,116.5 32.8333,116.5 47.5,116.5C 33.1667,117.167 18.8333,117.833 4.5,118.5C 3.66175,118.158 3.32842,117.492 3.5,116.5 Z"/></g>
<g><path style="opacity:1" fill="#fdfdfd" d="M -0.5,116.5 C 6.47145,157.805 30.4715,182.805 71.5,191.5C 47.5,191.5 23.5,191.5 -0.5,191.5C -0.5,166.5 -0.5,141.5 -0.5,116.5 Z"/></g>
<g><path style="opacity:1" fill="#fdfcfc" d="M 165.5,118.5 C 165.5,142.833 165.5,167.167 165.5,191.5C 141.167,191.5 116.833,191.5 92.5,191.5C 133.176,183.491 157.509,159.158 165.5,118.5 Z"/></g>
</svg>

<svg xmlns="http://www.w3.org/2000/svg" width="166" height="192" style="shape-rendering:geometricPrecision;text-rendering:geometricPrecision;image-rendering:optimizeQuality;fill-rule:evenodd;clip-rule:evenodd"><path style="opacity:1" fill="#070809" d="M-.5-.5h166v119c-7.991 40.658-32.324 64.991-73 73h-21c-41.029-8.695-65.029-33.695-72-75V-.5z"/><path style="opacity:1" fill="#253165" d="M130.5 4.5a3044.693 3044.693 0 0 1-26.5 71c-10.579 25.083-29.412 38.75-56.5 41h-44V3.5a4032.85 4032.85 0 0 1 127 1z"/><path style="opacity:1" fill="#273164" d="M159.5 124.5a2986.401 2986.401 0 0 1-27-117v-4h29c.167 38.335 0 76.668-.5 115-.191 2.208-.691 4.208-1.5 6z"/><path style="opacity:1" fill="#fefefe" d="m130.5 4.5 2 3a2986.401 2986.401 0 0 0 27 117c-7.282 32.783-27.282 53.283-60 61.5-44.797 6.026-75.63-11.808-92.5-53.5a73.76 73.76 0 0 1-2.5-14l43-2c27.088-2.25 45.921-15.917 56.5-41a3044.693 3044.693 0 0 0 26.5-71z"/><path style="opacity:1" fill="#e0a01d" d="m55.5 47.5-2 3a40.936 40.936 0 0 0-.5-9c-1.416 6.215-1.916 12.548-1.5 19h3v-4c-.16-1.7.007-3.366.5-5 1.107 1.212 1.607.879 1.5-1 .346-6.082 3.013-7.416 8-4 .07 3.925-.597 7.592-2 11-.291-1.15-1.124-1.816-2.5-2-3.367.509-4.2 2.176-2.5 5v3c-2.188 1.036-2.188 2.536 0 4.5 6.985 1.519 10.652-1.315 11-8.5.7-2.835.867-5.835.5-9 1.011-.837 2.178-1.17 3.5-1v1c-.33 2.657-.663 5.324-1 8-.139 2.383.528 4.383 2 6 .01 1.517.677 2.684 2 3.5 2.538.796 4.872.63 7-.5-.01-3.188.157-6.522.5-10-2.045-1.543-3.545-1.21-4.5 1-1.29-.558-2.123-1.558-2.5-3-.755-3.755-.589-7.422.5-11 1.419-.951 3.085-1.285 5-1a69.516 69.516 0 0 0 2.5 6 292.092 292.092 0 0 1 0-16c1.789-1.729 3.956-2.396 6.5-2a108.652 108.652 0 0 0-4.5 20c-.808 3.527-.64 6.86.5 10v3c-.617.11-1.117.444-1.5 1 .694 5.803-1.806 8.47-7.5 8-1.562-.233-2.895-.9-4-2a29.031 29.031 0 0 0-3-8c-.886.825-1.219 1.825-1 3-1.466.847-2.3 2.18-2.5 4-1.129 1.641-2.629 2.641-4.5 3h-3c-4.26-1.852-5.927-5.186-5-10h-3a33.685 33.685 0 0 1-2 9 5.728 5.728 0 0 1-3 1c-2.12.175-4.12-.159-6-1a10.174 10.174 0 0 0-3-3c-1.39-7.94-2.724-7.94-4 0a14.76 14.76 0 0 1-5 4c-2.475 1.187-4.809.853-7-1 .172-.992-.162-1.658-1-2 .932-13.409-1.068-26.409-6-39h6c1.35 1.923 2.018 4.09 2 6.5a31.49 31.49 0 0 0-.5 11.5c.246-4.94 2.58-6.606 7-5 1.764 4.248 1.931 8.581.5 13-.617.11-1.117.444-1.5 1-2.532-2.872-4.366-2.539-5.5 1 .555 2.602.721 5.269.5 8 5.698 2.003 9.365.003 11-6 .79-2.212.623-4.212-.5-6a20.677 20.677 0 0 1-1-5c1.916-1.616 3.416-1.282 4.5 1-.32 2.96-.32 5.96 0 9 .374 1.991 1.207 3.658 2.5 5 1.907 2.832 4.573 3.666 8 2.5 2.667-2 2.667-4 0-6 1.966-1.347 2.3-2.847 1-4.5-.291-1.15-1.124-1.816-2.5-2a53.543 53.543 0 0 0-4.5 1c-.165-3.35.002-6.683.5-10 1.733-2.102 3.733-2.435 6-1a22.5 22.5 0 0 1 2 7 12.5 12.5 0 0 0 0-7c-2.828-3.296-3.662-6.962-2.5-11 1.527.073 2.527-.594 3-2 .958-.453 1.792-1.12 2.5-2 1.193 2.105 2.86 3.772 5 5 .667 2 .667 4 0 6-1.559 1.717-2.392 3.717-2.5 6z"/><path style="opacity:1" fill="#1d1a16" d="M86.5 61.5c-1.14-3.14-1.308-6.473-.5-10a108.652 108.652 0 0 1 4.5-20c-2.544-.396-4.711.271-6.5 2a292.092 292.092 0 0 0 0 16 69.516 69.516 0 0 1-2.5-6c-.167-3.596.333-7.263 1.5-11 2.481-1.814 5.315-2.48 8.5-2a145.36 145.36 0 0 0-5 31z"/><path style="opacity:1" fill="#1b1814" d="M64.5 46.5c-4.987-3.416-7.654-2.082-8 4-.904-.709-1.237-1.709-1-3 .108-2.283.941-4.283 2.5-6 .667-2 .667-4 0-6-2.14-1.228-3.807-2.895-5-5-.708.88-1.542 1.547-2.5 2 1.114-5.705 2.614-6.039 4.5-1 4.498 2.698 5.664 6.531 3.5 11.5l5 1c.752.67 1.086 1.504 1 2.5z"/><path style="opacity:1" fill="#151310" d="M47.5 34.5c-1.162 4.038-.328 7.704 2.5 11a12.5 12.5 0 0 1 0 7 22.5 22.5 0 0 0-2-7c-2.267-1.435-4.267-1.102-6 1a50.441 50.441 0 0 0-.5 10c-1.143-3.476-1.31-7.142-.5-11 1.444-1.655 3.278-2.322 5.5-2a47.489 47.489 0 0 0-1-5.5c-.113-1.7.553-2.866 2-3.5z"/><path style="opacity:1" fill="#836022" d="M55.5 47.5c-.237 1.291.096 2.291 1 3 .107 1.879-.393 2.212-1.5 1-.493 1.634-.66 3.3-.5 5-.961-1.765-1.295-3.765-1-6l2-3z"/><path style="opacity:1" fill="#1d1916" d="M14.5 31.5c4.932 12.591 6.932 25.591 6 39-.689-2.52-1.689-5.02-3-7.5 1.218-1.438 1.885-3.105 2-5a120.43 120.43 0 0 0-6-25c.07-.765.403-1.265 1-1.5z"/><path style="opacity:1" fill="#121111" d="M20.5 31.5c1.25.077 2.083.744 2.5 2 .498 2.982.665 5.982.5 9a18.436 18.436 0 0 1 6 .5c1.311 2.48 2.311 4.98 3 7.5a20.677 20.677 0 0 0 1 5c-.617-.11-1.117-.444-1.5-1a81.718 81.718 0 0 1-2.5 3c1.431-4.419 1.264-8.752-.5-13-4.42-1.606-6.754.06-7 5a31.49 31.49 0 0 1 .5-11.5c.018-2.41-.65-4.577-2-6.5z"/><path style="opacity:1" fill="#131110" d="M72.5 49.5c-1.322-.17-2.489.163-3.5 1 .367 3.165.2 6.165-.5 9a30.348 30.348 0 0 1-.5-10c1.615-1.3 3.115-1.3 4.5 0z"/><path style="opacity:1" fill="#1d1811" d="M76.5 44.5c-1.089 3.578-1.255 7.245-.5 11 .377 1.442 1.21 2.442 2.5 3a2.428 2.428 0 0 1-.5 2c-2.9-2.675-4.067-6.009-3.5-10 .04-2.452.706-4.452 2-6z"/><path style="opacity:1" fill="#1f1a18" d="M53.5 50.5c-.295 2.235.039 4.235 1 6v4h-3c-.416-6.452.084-12.785 1.5-19 .498 2.982.665 5.982.5 9z"/><path style="opacity:1" fill="#222647" d="M33.5 55.5c1.123 1.788 1.29 3.788.5 6-1.635 6.003-5.302 8.003-11 6a27.524 27.524 0 0 0-.5-8c1.134-3.539 2.968-3.872 5.5-1 .383-.556.883-.89 1.5-1 .815-.93 1.648-1.93 2.5-3 .383.556.883.89 1.5 1z"/><path style="opacity:1" fill="#191510" d="M64.5 46.5c1.405 4.437.905 8.77-1.5 13a2.428 2.428 0 0 1-.5-2c1.403-3.408 2.07-7.075 2-11z"/><path style="opacity:1" fill="#19150e" d="M72.5 50.5c-.045 4.518.288 9.185 1 14-1.472-1.617-2.139-3.617-2-6 .337-2.676.67-5.343 1-8z"/><path style="opacity:1" fill="#101012" d="M48.5 57.5c-2.712-1.487-4.879-.82-6.5 2a4.932 4.932 0 0 1-.5-3 53.543 53.543 0 0 1 4.5-1c1.376.184 2.209.85 2.5 2z"/><path style="opacity:1" fill="#1d1913" d="M82.5 67.5c-1.203-2.674-1.203-5.34 0-8-.937-2.142-2.27-2.476-4-1 .955-2.21 2.455-2.543 4.5-1a98.736 98.736 0 0 0-.5 10z"/><path style="opacity:1" fill="#101012" d="M62.5 57.5c-3.308-1.784-4.975-.784-5 3-1.7-2.824-.867-4.491 2.5-5 1.376.184 2.209.85 2.5 2z"/><path style="opacity:1" fill="#0e1017" d="M48.5 57.5c1.3 1.653.966 3.153-1 4.5 2.667 2 2.667 4 0 6-3.427 1.166-6.093.332-8-2.5 3.19 2.72 6.19 2.554 9-.5-1.074-.739-1.74-1.739-2-3a15.416 15.416 0 0 0 2-4.5z"/><path style="opacity:1" fill="#281f13" d="M37.5 69.5a81.718 81.718 0 0 1-2.5-3c-.232 1.237-.732 2.237-1.5 3 1.276-7.94 2.61-7.94 4 0z"/><path style="opacity:1" fill="#1a1714" d="M68.5 59.5c-.348 7.185-4.015 10.019-11 8.5-2.188-1.964-2.188-3.464 0-4.5.28 3.725 2.28 4.892 6 3.5 2.323-2.17 3.99-4.67 5-7.5z"/><path style="opacity:1" fill="#0f1119" d="M59.5 73.5c-4.333 1.333-8.667 1.333-13 0a5.728 5.728 0 0 0 3-1 33.685 33.685 0 0 0 2-9h3c-.927 4.814.74 8.148 5 10z"/><path style="opacity:1" fill="#243165" d="M49.5 72.5c2.011-2.167 3.178-4.834 3.5-8 .147 3.07.98 5.904 2.5 8.5-2.212.79-4.212.623-6-.5z"/><path style="opacity:1" fill="#241e15" d="M73.5 71.5a22.763 22.763 0 0 1-4-5c-.219-1.175.114-2.175 1-3a29.031 29.031 0 0 1 3 8z"/><path style="opacity:1" fill="#1b1713" d="M73.5 64.5c2.388 2.576 5.388 3.576 9 3-2.128 1.13-4.462 1.296-7 .5-1.323-.816-1.99-1.983-2-3.5z"/><path style="opacity:1" fill="#1e2548" d="M37.5 69.5a10.174 10.174 0 0 1 3 3c-1.548 1.294-3.548 1.96-6 2-2.197-.005-4.197-.338-6-1a14.76 14.76 0 0 0 5-4c.768-.763 1.268-1.763 1.5-3a81.718 81.718 0 0 0 2.5 3z"/><path style="opacity:1" fill="#674c1e" d="M86.5 64.5c.294 3.615-.706 6.782-3 9.5a2.428 2.428 0 0 0 2 .5c-10.479 1.332-21.312 1.999-32.5 2-11.188-.001-22.021-.668-32.5-2 .838-.342 1.172-1.008 1-2 2.191 1.853 4.525 2.187 7 1 1.803.662 3.803.995 6 1 2.452-.04 4.452-.706 6-2 1.88.841 3.88 1.175 6 1 4.333 1.333 8.667 1.333 13 0h3c5 1.333 10 1.333 15 0 5.694.47 8.194-2.197 7.5-8 .383-.556.883-.89 1.5-1z"/><path style="opacity:1" fill="#191f39" d="M69.5 66.5a22.763 22.763 0 0 0 4 5c1.105 1.1 2.438 1.767 4 2-5 1.333-10 1.333-15 0 1.871-.359 3.371-1.359 4.5-3 .2-1.82 1.034-3.153 2.5-4z"/><path style="opacity:1" fill="#181615" d="M20.5 74.5c10.479 1.332 21.312 1.999 32.5 2 11.188-.001 22.021-.668 32.5-2 2.667 3.667 2.667 7.333 0 11a728.252 728.252 0 0 1-66 .5 20.064 20.064 0 0 1-1-6c.047-2.295.713-4.129 2-5.5z"/><path style="opacity:1" fill="#8a6622" d="M85.5 85.5c-21.677.333-43.344 0-65-1l32.5-1c11.188.001 22.021.668 32.5 2z"/><path style="opacity:1" fill="#e7a51c" d="M19.5 77.5c22.002-.167 44.002 0 66 .5 1.211 1.113 1.211 2.28 0 3.5-21.99 1-43.99 1.333-66 1v-5z"/><path style="opacity:1" fill="#888481" d="M3.5 116.5h44l-43 2c-.838-.342-1.172-1.008-1-2z"/><path style="opacity:1" fill="#fdfdfd" d="M-.5 116.5c6.971 41.305 30.971 66.305 72 75h-72v-75z"/><path style="opacity:1" fill="#fdfcfc" d="M165.5 118.5v73h-73c40.676-8.009 65.009-32.342 73-73z"/></svg>
